X: 38251
T: Sr Elizabeth's
R: reel
M: 4/4
K: Dmajor
d3 c de e2|dAFA AGEG|(3FED FA dfaf|bgec dcBc|
d2 dc de e2|dAFA AGEG|(3FED FA dfaf|1 gece dABc:|2 gece d2 d2||
K:Gmaj
B2 BG (3EFG DC|B,DGA BGAB|c2 cd (3efg fa|gedB AGFA|
GBFB EGDC|B,DGA BGAB|c2 cd (3efg fd|1 cAFA G2 G2:|2 cAFA BG ^cA||

